X:485
T:Otter's Holt, The
M:C|
L:1/8
C:Junior Crehan
R:Reel (Key of Bm)
K:Bm
"Bm"fBBA FEFB | "A"A2FB ABde | "Bm"fBBA FEFA | "A"BdcA "Bm"~B3e |
fBBA FEFB | "A"A2FB ABde | "D"faaf egfe |1 "A"dBAF "Bm"~B3e :|2 "A"dBAF "Bm"~B3c |:
"D"d2fd Adfa | "G"bfaf "A"egfe | "D"d2fd Adfa | "G"bfaf "A"~e2fe |
"D"d2fd Adfa | "G"bfaf "A"efde | "Bm"fBBA FEFA |1 "A"BdcA "Bm"~B3c :|2 "A"BdcA "Bm"~B3e |]
